X:1
T:Title
%%score ( 1 2 3 ) ( 4 5 6 )
L:1/8
Q:1/4=106
M:4/4
K:F
V:1 treble nm="Grand Piano, Staff 1"
V:2 treble 
V:3 treble 
V:4 bass nm="Choir Pad, Zum Frieden, 87.87 D"
V:5 bass 
V:6 bass 
V:1
 [FA]2 [DF]2 D2 [Fd]2 | .F2 A2 B2 z2 | z4 B2 A2 | G2 z2 z4 | [FA]2 [DF]2 D2 [Fd]2 | .F2 A2 B2 z2 | %6
 z4 B2 A2 | G2 z2 z4 | [^CE]2 [=B,E]2 [CE]2 [EA]2 | [DF]2 [^CE]2 [DF]2 [DF]2 | %10
 [DF]2 E2 [DF]2 [Fd]2 | _A4 z4 | z2 .G2 B2 z2 | [Ad][G^c][Fd][Ee] [Ec]2 [^CA]2 | A2 .d2 .B2 .G2 | %15
 [DE]2 ^CD D4- | D4 z4 |] %17
V:2
 x8 | B-[EB]ED DC [CA]2 | [EG]2 F2 FEED | D^C [DF]2 [CE]4 | x8 | B-[EB]ED DC [CA]2 | %6
 [EG]2 F2 FEED | D^C [DF]2 [CE]4 | x8 | x8 | x8 | E2 z =A [^CA]4 | [EA]2 D-[DF] FE A2 | x8 | %14
 DEF-[Fc] D-[DA]D-[DF] | x8 | x8 |] %17
V:3
 x8 | x8 | x8 | x8 | x8 | x8 | x8 | x8 | x8 | x8 | x8 | z2 D2 z4 | x8 | x8 | x8 | x8 | x8 |] %17
V:4
 z2 D2 z4 | G,2 [F,A,]2 [E,G,]2 F,2 | [^C,A,]2 [D,A,]2 G,2 [F,A,]2 | E,2 F,G, [A,,A,]4 | z2 D2 z4 | %5
 G,2 [F,A,]2 [E,G,]2 F,2 | [^C,A,]2 [D,A,]2 G,2 [F,A,]2 | E,2 F,G, [A,,A,]4 | %8
 A,2 [_A,=B,]2 =A,2 [^C,A,]2 | [D,A,]2 [A,,A,]2 [D,A,]2 [D,A,]2 | %10
 [D,A,]2 [^C,A,]2 [D,A,]2 [=B,,A,]2 | [E,=B,]2 [E,B,]2 [A,,A,]4 | [^C,A,]2 [D,A,]2 [G,B,]2 [F,D]2 | %13
 B,2 [G,B,]2 A,2 A,G, | A,-[E,A,] [D,A,]2 G,2 [D,A,]2 | A,2 [A,,G,]2 [D,F,]4- | [D,F,]4 z4 |] %17
V:5
 D2 z E, [F,A,]2 [D,A,]2 | x8 | x8 | z2 D,2 z4 | D2 z E, [F,A,]2 [D,A,]2 | x8 | x8 | z2 D,2 z4 | %8
 x8 | x8 | x8 | x8 | x8 | x8 | .F,2 z2 z4 | x8 | x8 |] %17
V:6
 D,4 z4 | x8 | x8 | x8 | D,4 z4 | x8 | x8 | x8 | x8 | x8 | x8 | x8 | x8 | x8 | x8 | x8 | x8 |] %17

